X:42
T:Happy Fisherman. THO5.042, The
M:6/8
L:1/8
B:Thompson's Complete Collection of 200 Favourite Dances Vol.5
F:https://www.libraryofdance.org/manuals/1780c-Thompson-Compleat-5.pdf
Z:vmp. Peter Dunk 2024
Q:3/8=100
K:A
A2A cBc|dfd Bcd|cBA AGA|BGE EFG|
A2A cBc|dfd Bcd|cBA|EFG|A3 [AA,]3:|
|:fdA FDf|ecA E[cC]e|dcB cBA|GAB EFG|
A2A cBc|dfd Bcd|cBA EFG|A3 [AA,]3:|
W:
W:1st Gent: foot it to the 2nd Lady and turn his Partner ./.
W:1st Lady foot it to the 2nd Gent and do the same ./:
W:cross over 2 Couples: lead up 1 and turn :/.
W:Hands 6 round to the top and cast off :/:

